X: 11900
T: Emma's Single (But I Can't Marry Her)
R: jig
M: 6/8
K: Gmajor
|:G2 B d2 g|fga gdB|c2 A BAG|FGA DEF|
G2 B d2 g|fga gdB|ced cBA|1 BAF DEF:|2 DGF G2 B||
|:c2A EAc|EAc e2c|B2G ~D3|GAB dcB|
c2A EAc|EAc c2e|g2e dBG|1 ~D3 G2B:|2 cBA FGA||

